X:12
T:Butchers Hornpipe. JBi.12
M:3/2
L:1/8
Q:1/2=100
S:James Biggins MS, Leeds, 1779.
R:.3/2 HP
O:England
A:Yorkshire
Z:vmp.Nick Barber & Chris Partington
K:Bb
â€œ_no time sig.â€BGFE DFEDC2Bc| ((3edc) ((3dcA) B2B,E DEFD|!
BGFE DFED CEDC|B,BAcB2B,E DEFD||!
|BABc BdcB AcBA| ((3edc) ((3dcB) c2CE DEFD|!
BABc BdcB Agfe| ((3edc) ((3dcA) B2B,E DEFD||!
|babf gfgd edcB|e2â€³^crâ€c3-c CE DEFD|!
babf gfgd Agfe|d2B3-B B,E DEFD||!
|GECE FDB,D GFED|CcBdc2CE DEFD|!
GECE FDB,D GFED|B,BAcB2B,E DEFD||!
|GABcd2b2AcBA|GcBdc2CE DEFD|!
GABcd2b2AcBA|B,BAcB2B,E DEFD|]

